X:18
T:Lucy Campbell's
M:4/4
L:1/8
R:Reel
K:D major
|A2 FA A2 dB|A2 FA BE E2|A2 FA defe|dBAF AD D2|!
AD (3FED A2 dB|(3ABA FA BE E2|ADFA defe|dBAF AD D2||!
dBAB defe|d2 cABE E2|dBAB defe|dBAF AD D2|!
dBAB defe|dB (3BAB gBdB|A2 FA defe|dBAF AD D2||!
a3 f defg|a2 fa be e2| a3 f defe|dBAF AD D2|!
a3 f defg|(3aba fa beef|g3 e f3 e|dBAF AD D2||!
df (3fef dfef|df (3fef afef|dffe f3 e|dBAF AD D2|!
df (3fef dfef|df (3fef afef|g3 e f3 e|dBAF AD D2||

